inst/assets/svg/wi-direction-down-right.svg

<?xml version="1.0" encoding="UTF-8"?>
<svg xmlns="http://www.w3.org/2000/svg" xmlns:xlink="http://www.w3.org/1999/xlink" width="30pt" height="30pt" viewBox="0 0 30 30" version="1.1">
<g id="surface186">
<path style=" stroke:none;fill-rule:nonzero;fill:rgb(0%,0%,0%);fill-opacity:1;" d="M 10.039063 10.078125 C 10.039063 9.78125 10.128906 9.53125 10.300781 9.351563 C 10.5 9.160156 10.761719 9.070313 11.089844 9.070313 C 11.390625 9.070313 11.640625 9.160156 11.820313 9.351563 L 17.871094 15.398438 L 17.871094 13.449219 C 17.871094 13.148438 17.96875 12.898438 18.171875 12.699219 C 18.371094 12.5 18.621094 12.398438 18.921875 12.398438 C 19.210938 12.398438 19.460938 12.5 19.660156 12.710938 C 19.859375 12.921875 19.960938 13.160156 19.960938 13.460938 L 19.960938 17.941406 C 19.960938 18.238281 19.859375 18.488281 19.660156 18.691406 C 19.460938 18.890625 19.210938 18.988281 18.921875 18.988281 L 14.441406 18.988281 C 14.148438 18.988281 13.898438 18.890625 13.699219 18.691406 C 13.5 18.488281 13.398438 18.238281 13.398438 17.941406 C 13.398438 17.648438 13.5 17.398438 13.699219 17.210938 C 13.898438 17.019531 14.148438 16.921875 14.441406 16.921875 L 16.371094 16.921875 L 10.289063 10.859375 C 10.128906 10.628906 10.039063 10.378906 10.039063 10.078125 Z M 10.039063 10.078125 "/>
</g>
</svg>

<?xml version="1.0" encoding="utf-8"?>
<!-- Generator: Adobe Illustrator 22.0.1, SVG Export Plug-In . SVG Version: 6.00 Build 0)  -->
<svg version="1.1" id="Layer_1" xmlns="http://www.w3.org/2000/svg" xmlns:xlink="http://www.w3.org/1999/xlink" x="0px" y="0px"
	 viewBox="0 0 30 30" style="enable-background:new 0 0 30 30;" xml:space="preserve">
<path d="M10.04,10.08c0-0.3,0.09-0.55,0.26-0.73c0.2-0.19,0.46-0.28,0.79-0.28c0.3,0,0.55,0.09,0.73,0.28l6.05,6.05v-1.95
	c0-0.3,0.1-0.55,0.3-0.75s0.45-0.3,0.75-0.3c0.29,0,0.54,0.1,0.74,0.31s0.3,0.45,0.3,0.75v4.48c0,0.3-0.1,0.55-0.3,0.75
	s-0.45,0.3-0.74,0.3h-4.48c-0.29,0-0.54-0.1-0.74-0.3s-0.3-0.45-0.3-0.75c0-0.29,0.1-0.54,0.3-0.73s0.45-0.29,0.74-0.29h1.93
	l-6.08-6.06C10.13,10.63,10.04,10.38,10.04,10.08z"/>
</svg>
